teeny/outline/bug.svg

<svg width="15" height="15" viewBox="0 0 15 15" fill="none" xmlns="http://www.w3.org/2000/svg">
<path d="M4.5 4.5H10.5M4.5 4.5L4.13344 5.23313C3.71687 6.06626 3.5 6.98494 3.5 7.91641V10.5C3.5 12.7091 5.29086 14.5 7.5 14.5C9.70914 14.5 11.5 12.7091 11.5 10.5V7.91641C11.5 6.98494 11.2831 6.06626 10.8666 5.23313L10.5 4.5M4.5 4.5V3.5C4.5 1.84315 5.84315 0.5 7.5 0.5C9.15685 0.5 10.5 1.84315 10.5 3.5V4.5M0 8.5H3.5M15 8.5H11.5M1 14L4 12.5M14 14L11 12.5M1 3L4 4.5M14 3L11 4.5" stroke="black"/>
</svg>

<svg viewBox="0 0 15 15" xmlns="http://www.w3.org/2000/svg"><path fill="none" stroke="#000" d="M4.5 4.5h6m-6 0l-.37.73c-.42.83-.64 1.75-.64 2.68v2.58c0 2.2 1.79 4 4 4 2.2 0 4-1.8 4-4V7.9c0-.94-.22-1.86-.64-2.69l-.37-.74m-6 0v-1c0-1.66 1.34-3 3-3 1.65 0 3 1.34 3 3v1m-10.5 4h3.5m11.5 0h-3.5m-10.5 5.5l3-1.5m10 1.5l-3-1.5m-10-9.5l3 1.5m10-1.5l-3 1.5"/></svg>
